X: 96
T:Marino Waltz
M:6/8
L:1/8
Q:57
R:Waltz
Z:Gerry Strong
K:G
gd&gt;B F2 B|E2 c D3|CDE FDA|GDB A3|gd&gt;B F2 f|ed&gt;c E2 e|dcA F2 B|1G3-G/2
d/2^c/2d/2e/2f/2:|2G3-G3||
|:DEF GAB|B3 F3|E3 c2 E|G2 F/2E/2 F3|CDE FD&gt;A|GD&gt;d e2 d|cA&gt;F D2
B|1G3-G3:|2G3-G/2 d/2^c/2d/2e/2f/2||
<end>
<start>
